!!!SOCIAL_FUNCTION:	songs of social dances
!!!PDT:	1958
!!!OTL: No_21_Toto_Dance_Song_(a).krn
!!!REG: Northern California
!!!LANG: Non-Tone
!!!LING_GROUP: Penutian
**kern
*staff1
=1-
=
*clefF4
*k[b-e-a-]
*M3/4
16e-\LL
16c\
16c\
16c\JJ
8c\
24B-\LL
24B-\
24B-\JJ
4c\
=2
16e-\LL
16c\
16c\
16c\JJ
8c\
24B-\LL
24B-\
24B-\JJ
8c\
16r
16B-\
=3
*M2/4
8.c\L
(16c\Jk
8.G\L)
16G\Jk
=4
8.G\L
16F\Jk
8E-\
8r
=5
*M3/4
16e-\LL
16d\
16c\
16c\JJ
8c\
24B-\LL
24B-\
24B-\JJ
4c\
=6
16e-\LL
16c\
16c\
16c\JJ
8c\
24B-\LL
24B-\
24B-\JJ
4c\
=7
16e-\LL
16c\
16c\
16c\JJ
8c\
24B-\LL
24B-\
24B-\JJ
8c\
16r
16B-\
=8
*M2/4
8.c\L
(16c\Jk
8.G\L)
16G\Jk
=9
8G\L
16G\L
16F\JJ
8E-\
8r
=10
*M3/4
16e-\LL
16d\
16e-\
16c\JJ
8c\
24B-\LL
24B-\
24B-\JJ
4c\
=11
16e-\LL
16c\
16c\
16c\JJ
8c\
24B-\LL
24B-\
24B-\JJ
8c\
8r
=12
16c\LL
16B-\
16c\
16c\JJ
8c\
24B-\LL
24B-\
24B-\JJ
8c\
16r
16B-\
=13
*M2/4
8.c\L
(16c\Jk
8.G\L)
16G\Jk
=14
8.G\L
16F\Jk
8E-\
8r
==:|!
*-
